dist/svg/phishing.svg

<!-- Generated by Trend Micro Style Portal -->
<svg version="1.1" xmlns="http://www.w3.org/2000/svg" width="16" height="16" viewBox="0 0 16 16">
  <title>phishing</title>
  <path fill="rgb(34,34,34)" d="M14.25 7h-3.25v-3.071c0.86-0.224 1.5-1 1.5-1.929 0-1.103-0.897-2-2-2s-2 0.897-2 2c0 0.929 0.64 1.705 1.5 1.929v3.071h-4v-1h2l-3-4v5h-3.25c-0.412 0-0.75 0.338-0.75 0.75v7.5c0 0.412 0.338 0.75 0.75 0.75h12.5c0.412 0 0.75-0.338 0.75-0.75v-7.5c0-0.415-0.335-0.75-0.75-0.75zM9.5 2c0-0.552 0.449-1 1-1s1 0.448 1 1-0.449 1-1 1-1-0.448-1-1zM14 15h-12v-5.208l6 4.324 6-4.324v5.208zM14 8.56l-6 4.324-6-4.324v-0.56h3c0 1.65 1.35 3 3 3 0.352 0 0.685-0.073 1-0.185v-1.093c-0.295 0.172-0.634 0.278-1 0.278-1.103 0-2-0.897-2-2h8v0.56z"></path>
</svg>

<svg width="16" height="16" viewBox="0 0 16 16" fill="rgb(34, 34, 34)" xmlns="http://www.w3.org/2000/svg"><title>phishing</title><path d="M14.25 7H11V3.929C11.86 3.705 12.5 2.929 12.5 2C12.5 0.897 11.603 0 10.5 0C9.397 0 8.5 0.897 8.5 2C8.5 2.929 9.14 3.705 10 3.929V7H6V6H8L5 2V7H1.75C1.338 7 1 7.338 1 7.75V15.25C1 15.662 1.338 16 1.75 16H14.25C14.662 16 15 15.662 15 15.25V7.75C15 7.335 14.665 7 14.25 7ZM9.5 2C9.5 1.448 9.949 1 10.5 1C11.051 1 11.5 1.448 11.5 2C11.5 2.552 11.051 3 10.5 3C9.949 3 9.5 2.552 9.5 2ZM14 15H2V9.792L8 14.116L14 9.792V15ZM14 8.56L8 12.884L2 8.56V8H5C5 9.65 6.35 11 8 11C8.352 11 8.685 10.927 9 10.815V9.722C8.705 9.894 8.366 10 8 10C6.897 10 6 9.103 6 8H14V8.56Z" fill="rgb(34, 34, 34)" fill-opacity="1.00"/></svg>
